X: 253
T: Hai wawa
L: 1/16
M: 2/4
K: G
e2 e2 e2 d e [I:setbarnb 1]| 
f a f ed4 | 
e e2 g d2 d c | 
e d c BA4 | 
d2 d2 g2 e d | 
B A B dG4 | 
G2 G A d2 d F | 
E2> D2E4 |]

@@@ Tune index: 9127
